src/actions/32/view-refresh.svg

<svg xmlns="http://www.w3.org/2000/svg" viewBox="0 0 32 32">
    <path fill="currentColor" d="M28 16a12 12 0 0 1-1.672 6.084l-5.378-5.377.71-.707 4.404 4.404A11 11 0 0 0 27 16 11 11 0 0 0 16 5a11 11 0 0 0-5.352 1.404l-.728-.732A12 12 0 0 1 16 4a12 12 0 0 1 12 12m-5.916 10.328A12 12 0 0 1 16 28 12 12 0 0 1 4 16a12 12 0 0 1 1.672-6.084l5.379 5.377-.707.707-4.404-4.406A11 11 0 0 0 5 16a11 11 0 0 0 11 11 11 11 0 0 0 5.352-1.404Z" style="color:#050505;opacity:.7"/>
</svg>

<svg version="1.1" viewBox="0 0 32 32" xmlns="http://www.w3.org/2000/svg">
    <defs>
        <style type="text/css" id="current-color-scheme">.ColorScheme-Text {
        color:#363636;
      }</style>
    </defs>
    <path class="ColorScheme-Text" fill="currentColor" d="m 28,16 a 12,12 0 0 1 -1.671875,6.083984 L 20.95,16.707 21.66,16 26.064,20.404 A 11,11 0 0 0 27,16 11,11 0 0 0 16,5 11,11 0 0 0 10.648438,6.404297 L 9.92,5.672 A 12,12 0 0 1 16,4 12,12 0 0 1 28,16 M 22.083984,26.328125 A 12,12 0 0 1 16,28 12,12 0 0 1 4,16 12,12 0 0 1 5.671875,9.91602 L 11.051,15.293 10.344,16 5.94,11.594 A 11,11 0 0 0 5,16 11,11 0 0 0 16,27 11,11 0 0 0 21.351562,25.595703 Z"/>
</svg>
